X:1
T:Be Not Afraid
T:Be Not Afraid
T:Carrie Esther Parker Rounsefell
T:Frank L. Parshley, 1903
T:Public Domain Courtesy of the Cyber Hymnal™
T:Public Domain Courtesy of the Cyber Hymnal™
C:Carrie Esther Parker Rounsefell
Z:Public Domain
Z:Courtesy of the Cyber Hymnal™
%%score ( 1 2 ) ( 3 4 )
L:1/8
Q:1/4=125
M:3/4
K:F
V:1 treble 
V:2 treble 
V:3 bass 
V:4 bass 
V:1
 ([FA][FB]) | [Fc]2 [Fd]2 [Fc]2 | [FA]2 [F^G]2 [FA]2 | [EB]3 [EB] [EB]2 | [EB]4 [EB][EB] | %5
w: 1.~When~the *|storm in its|fu- ry on|Gal- i- lee|fell, And the|
w: 2.~Then *|Pe- ter said,|“Lord, if it|real- ly be|Thou, Bid me|
w: 3.~Then *|Pe- ter, with|Je- sus, the|Sav- ior and|Guide, To the|
 [FA]2 [FA]2 [FA]2 | [FA]2 [FG]2 F2 | [EG]6- | [EG]4 (C[CF]) | [FA]2 [FA]2 [FA]2 | %10
w: bil- lows were|roll- ing on|high;|* A *|ship that was|
w: come on the|wa- ter to|Thee”;|* And~the *|Sav- ior made|
w: ship did re-|turn with- out|harm;|* And~the *|wind in its|
 [FA]4 [_EG][EA] | [DB]2 [DA]2 [DB]2 | [B,D]4 ([CE][B,D]) | [A,C]2 [CF]2 [FA]2 | %14
w: tossed in the|midst of the|sea Both~the *|wind and the|
w: an- swer and|said to him,|“come,” So~he *|walked like His|
w: fu- ry at|once was made|still, The *|waves dash- ing|
 [EB]2 [EG]2 [CE]2 | [CF]6- | [CF]4 [CE][CF] | [EG]2 [^D^F]2 [EG]2 | [EB]2 [B,D]2 [CE]2 | %19
w: waves did de-|fy;|* The dis-|ci- ples were|trou- bled and|
w: Lord on the|sea;|* But as|soon as he|saw how the|
w: high were made|calm;|* So with|faith that ne’er|wa- vers, what-|
 [CF]2 [DF]2 [EG]2 | [FA]4 ([FA][FA]) | [EG]2 [EG]2 [Gc]2 | [F=B]2 [FA]2 [FB]2 | [Ec]6- | %24
w: shook with a-|larm As~their *|Lord on the|wa- ters drew|nigh;|
w: strong wind did|blow, Be- *|gin- ning to|sink, he did|cry,|
w: e’er may as-|sail, We~must *|trust Him, our|Sav- ior on|high;|
 [Ec]4 [FA][FB] | [Fc]2 [Fd]2 [Fc]2 | [FA]4 [_EG][EA] | [DB]2 [DA]2 [DB]2 | %28
w: * But He|called out in|words both as-|sur- ing and|
w: * And Je-|sus im- me-|di- ate- ly|stretched forth His|
w: * As He|still speaks to|com- fort, to|save and to|
 [B,D]4 [_A,E]!fermata![A,D] | [A,C]2 [CF]2 [FA]2 | [EB]2 [EG]2 [CE]2 | F6- | [CF]4 z2 || %33
w: sweet, Say- ing,|“Be not a-|fraid, it is|I.”||
w: hand, Say- ing,|“Why didst thou|doubt? It is|I.”||
w: bless, Say- ing,|“Be not a-|fraid, it is|I.”||
"^Refrain" [EG]2 [^D^F]2 [EG]2 | [EB]2 [B,D]2 [CE]2 | ([CF]6 | [FA]4) z2 | [F=B]2 [FA]2 [FG]2 | %38
w: |||||
w: Be not a-|fraid, it is|I,||be not a-|
w: |||||
 [F=B]2 [Fc]2 [Fd]2 | [Ec]6- | [Ec]4 [FA][FB] | [Fc]2 [Fd]2 [Fc]2 | [FA]4 [_EG][EA] | %43
w: |||||
w: fraid, it is|I;|* Then came|words won- drous|sweet, O’er the|
w: |||||
 [DB]2 [DA]2 [DB]2 | [B,D]4 [CE]!fermata![_A,D] | [A,C]2 [CF]2 [FA]2 | [EB]2 [EG]2 [CE]2 | F6- | %48
w: |||||
w: wa- ters so|deep, Say- ing,|“Be not a-|fraid, it is|I.”|
w: |||||
 [CF]4 |] %49
w: |
w: |
w: |
V:2
 x2 | x6 | x6 | x6 | x6 | x6 | x4 F2 | x6 | x4 C x | x6 | x6 | x6 | x6 | x6 | x6 | x6 | x6 | x6 | %18
 x6 | x6 | x6 | x6 | x6 | x6 | x6 | x6 | x6 | x6 | x6 | x6 | x6 | C2 D2 _D2 | x6 || x6 | x6 | x6 | %36
 x6 | x6 | x6 | x6 | x6 | x6 | x6 | x6 | x6 | x6 | x6 | C2 D2 _D2 | x4 |] %49
V:3
 ([F,C][F,B,]) | [F,A,]2 [F,B,]2 [F,A,]2 | [F,C]2 [F,=B,]2 [F,C]2 | [G,C]3 [G,C] [G,C]2 | %4
 [C,C]4 [C,C][C,C] | [F,C]2 [F,C]2 [F,C]2 | [D,=B,]2 [D,B,]2 [G,,B,]2 | ([C,-C]6 | %8
 [C,B,]4) ([F,A,][F,A,]) | [F,C]2 [F,C]2 [F,C]2 | [F,C]4 [F,C]F, | [B,,F,]2 [B,,F,]2 [B,,F,]2 | %12
 [B,,F,]4 ([B,,F,][B,,F,]) | [C,F,]2 [C,A,]2 [C,C]2 | [C,G,]2 [C,B,]2 [C,B,]2 | [F,A,]6- | %16
 [F,A,]4 [C,G,][C,G,] | [C,B,]2 [C,B,]2 [C,B,]2 | [C,G,]2 [C,F,]2 [C,B,]2 | %19
 [F,A,]2 [D,A,]2 [C,C]2 | [F,C]4 ([F,C][F,C]) | [G,C]2 [G,C]2 [G,E]2 | [G,D]2 [G,C]2 [G,D]2 | %23
 [C,C]6- | [C,C]4 [F,C][F,B,] | [F,A,]2 [F,B,]2 [F,A,]2 | [F,C]4 [F,C]F, | %27
 [B,,F,]2 [B,,F,]2 [B,,F,]2 | [B,,F,]4 [=B,,F,][B,,F,] | [C,F,]2 [C,A,]2 [C,C]2 | %30
 [C,G,]2 [C,B,]2 [C,B,]2 | A,2 B,2 B,2 | [F,A,]4 z2 || [C,B,]2 [C,A,]2 [C,B,]2 | %34
 [C,G,]2 [C,G,]2 [C,B,]2 | ([F,A,]6 | [F,C]4) z2 | [G,D]2 [G,C]2 [G,B,]2 | %38
 [G,D]2 [G,A,]2 [G,=B,]2 | [C,C]6- | [C,C]4 [F,C][F,B,] | [F,A,]2 [F,B,]2 [F,A,]2 | %42
 [F,C]4 [F,C]F, | [B,,F,]2 [B,,F,]2 [B,,F,]2 | [B,,F,]4 [B,,F,][=B,,F,] | [C,F,]2 [C,A,]2 [C,C]2 | %46
 [C,G,]2 [C,B,]2 [C,B,]2 | A,2 B,2 B,2 | [F,A,]4 |] %49
V:4
 x2 | x6 | x6 | x6 | x6 | x6 | x6 | x6 | x6 | x6 | x5 F, | x6 | x6 | x6 | x6 | x6 | x6 | x6 | x6 | %19
 x6 | x6 | x6 | x6 | x6 | x6 | x6 | x5 F, | x6 | x6 | x6 | x6 | F,6- | x6 || x6 | x6 | x6 | x6 | %37
 x6 | x6 | x6 | x6 | x6 | x5 F, | x6 | x6 | x6 | x6 | F,6- | x4 |] %49

